X:1
T:Sorrow consumes me - Kirbye
T:#
%%score { 1 | 2 } 3 4 5
L:1/8
Q:1/4=100
M:4/4
K:G
V:1 treble nm="Soprano I" snm="S"
V:2 treble 
V:3 treble nm="Alto" snm="A"
V:4 treble-8 nm="Tenor" snm="T"
V:5 bass nm="Bass" snm="B"
V:1
 B8 | B4"^Sorrow consumes me" B4 | c8 | B8 | z8 | z4"^George Kirbye\n(1565-1634)" e4- | e2 ^d2 e4 | %7
w: Sor-|row con-|sumes|me,||sor|* row con-|
[M:4/4] c8- | c4[Q:1/4=50] !fermata!B4 |[Q:1/4=100] z2 d4 c2 | B2 B2 B2 e2- | e2 d2 B2 B2 | ^c8 | %13
w: sumes|* me,|and, in-|stead of rest, and,|* in- stead of|rest,|
 z8 | z4 z2 e2 | c2 A2 B4 | z4 B4 | B6 B2 | B4 A4 | B8- | B8 | z2 B2 B3 A | G2 (AB) c3 B | %23
w: |With|fold- ed arms|I|sad- ly|sit and|weep,||And if I|wink it * is for|
 A2 (G2 F4) | E4 z2 e2 | e3 d c2 (de) | =f4 e2 d2- | d2 (c2 B4) | ^c4 z4 | z2 A2 G2 E2 | %30
w: fear to *|see, and|if I wink it *|is for fear|* to *|see|The fear- ful|
 F2 ^G2 A4 | z8 | z2 e2 d2[Q:1/4=99] G2 |[Q:1/4=96] c3[Q:1/4=94] c[Q:1/4=92] B4 | %34
w: dreams' ef- fects,||the fear- ful|dreams' ef- fects|
[Q:1/4=89] z2[Q:1/4=88] B2[Q:1/4=86] A2[Q:1/4=84] F2 |[Q:1/4=84] !fermata!^G8 |] %36
w: that trou- ble|me.|
V:2
 z8 | z8 | z8 | z4 B4- | B2 B2 B4 | c8 | B8 |[M:4/4] E4 A4- | A4 !fermata!^G4 | z2 B4 A2 | %10
w: |||Sor\-|* row con-|sumes|me,|con- sumes|* me,|and, in-|
 F2 F2 ^G2 c2- | c2 A2 ^G2 G2 | A4 z2 A2 | =F2 D2 E4 | z2 A2 A2 ^G2 | A4 z4 | z4 e4 | ^d6 d2 | %18
w: stead of rest, and,|* in- stead of|rest, With|fold- ed arms,|with fold- ed|arms|I|sad- ly|
 (^d4 e4- | e4 ^d2 ^c2) | ^d8 | z8 | z8 | z4 z2 B2 | B3 A G2 (AB) | c3 B A2 (Bc) | d4 G2 B2- | %27
w: sit and||weep,|||And|if I wink it *|is for fear, it *|is for fear|
 BA A4 ^G2 | A4 z4 | z4 z2 e2 | d2 B2 c3 c | B4 z2 B2 | A2 E2 G3 G | A4 z2 G2 | (F2 E4) ^D2 | %35
w: * to see, to|see|The|fear- ful dreams' ef-|fects, the|fear- ful dreams ef-|fects that|trou\- * ble|
 !fermata!E8 |] %36
w: me.|
V:3
 z4 G4- | G2 F2 ^G4 | A8 | F4 =G4- | G2 F2 G4 | F4 E4 | z4 E4- |[M:4/4] E4 E4- | E4 !fermata!E4 | %9
w: Sor\-|* row con-|sumes|me, sor\-|* row con-|sumes me,|con-|* sumes|* me,|
 z2 =G4 E2 | ^D2 D2 E2 =G2- | G2 =F2 E2 E2 | E8 | z4 z2 A2 | =F2 D2 E4 | z2 E2 E2 ^D2 | E4 G4 | %17
w: and, in-|stead of rest, and,|* in- stead of|rest,|With|fold- ed arms,|with fold- ed|arms I|
 F6 F2 | F4 E4 | F8 | z2 F2 F3 E | !courtesy!=D2 (EF) G3 F | E2 (FG) A3 G | F2 E2 ^D4 | %24
w: sad- ly|sit and|weep,|And if I|wink it * is for|fear, it * is for|fear to see,|
 z2 G2 G3 F | E2 (FG) A4- | A2 D2 E2 =F2 | E6 E2 | E8 | z8 | z2 D2 C2 A,2 | D2 G2 F2 D2 | %32
w: and if I|wink it * is|* for fear, for|fear to|see||The fear- ful|dreams', the fear- ful|
 E3 C D2 E2 | C2 A,2 B,3 ^C | ^D2 G2 F2 F2 | !fermata!E8 |] %36
w: dreams' ef- fects, the|fear- ful dreams' ef-|fects that trou- ble|me.|
V:4
 z4 e4- | e2 ^d2 e4 | A8 | B4 B4- | B2 B2 B4 | A8 | F4 B4 |[M:4/4][K:treble-8] c4 A4 | %8
w: Sor\-|* row con-|sumes|me, sor\-|* row con-|sumes|me, con-|sumes me,|
 !fermata!z8 | =G6 A2 | B2 B2 E4 | z2 A2 e2 B2 | A4 z2 A2 | d2 =f2 e4 | z4 z2 E2 | A2 c2 B4 | B8 | %17
w: |and, in-|stead of rest,|in- stead of|rest, With|fold- ed arms,|with|fold- ed arms|I|
 B6 B2 | B4 E4 | B8- | B4 z2 B2 | B3 A G2 (AB) | c3 B A2 (Bc) | d2 e2 B2 B2 | E4 z4 | z2 A2 A3 G | %26
w: sad- ly|sit and|weep|* And|if I wink it *|is for fear, it *|is for fear to|see,|And if I|
 =F2 (AB) c2 B2 | ^G2 (A2 B4) | A4 z2 e2 | d2 A2 c3 c | B4 z2 A2 | G2 E2 F2 G2 | E2 A4 G2- | %33
w: wink it * is for|fear to *|see The|fear- ful dreams' ef-|fects, the|fear- ful dreams ef-|fects that trou\-|
 G2 F2 (G3 A | B2) B2 c2 B2 | !fermata!B8 |] %36
w: * ble me, *|* that trou- ble|me.|
V:5
 z8 | z8 | z8 | z4 E,4- | E,2 ^D,2 E,4 | A,,8 | B,,4 ^G,,4 |[M:4/4] A,,8 | !fermata!E,8 | z8 | %10
w: |||Sor\-|* row con-|sumes|me, con-|con\-sumes|me,||
 z4 z2 C,2- | C,2 D,2 E,2 E,2 | A,,8 | z4 z2 A,,2 | D,2 =F,2 E,4 | z8 | E,8 | B,,6 B,,2 | %18
w: and,|* in- stead of|rest,|With|fold- ed arms,||I|sad- ly|
 B,,4 C,4 | B,,8- | B,,8 | z8 | z8 | z8 | z2 E,2 E,3 D, | C,2 (D,E,) =F,3 E, | D,4 (C,2 D,2) | %27
w: sit and|weep,|||||And if I|wink it * is for|fear to *|
 E,8 | z2 A,2 G,2 E,2 | =F,3 F, E,4 | z8 | z2 E,2 D,2 B,,2 | C,3 C, B,,2 C,2 | A,,3 A,, G,,4 | %34
w: see|The fear- ful|dreams' ef- fects,||the fear- ful|dreams' ef- fects that|trou- ble me,|
 z2 G,,2 A,,2 B,,2 | !fermata!E,8 |] %36
w: that trou- ble|me.|

